X: 7
T: The Humours Of Lisheen
R: jig
M: 6/8
L: 1/8
K: Gmaj
Bd|:"G"efg {g}edB|cBA "Em"{d}BGE|~G3 "G".B.d.B|.BAG "D"ABd|
"G"efg edB|"Am"cBA "Em"BGE|~G3 "G".B.d.B|1 "Em"AGF "G"GBd:|2 "Em"AGF "G"G2D||
|:"G"GBd "Em"ggg|agf "Em"g2e|fed "Bm"edB|"Am"cBA "Em"BGE|
"G"GBd ggg|"D"agf "Em"g2e|"G"fed edB|1 "Em"AGF "G"G2D:|2 "Em"AGF "G"GBd||


Tune 1600	Setting 15015

